X: 25013
T: Maid That Tends The Goats, The
R: strathspey
M: 4/4
K: Aminor
E<E A<A c>E D2|E<E c>d B>A B<d|
e2 d>e G>A c2|1 d<B e>d B>A A>G:|2 d<B e>d B>A A2||
|:g>e e>d c<d E2|c/c/c d2 g>e e<d|
e<a c>G E>D D2|E<E c<d B>A B<d|
e2 d>e G>A c2|1 d<B e>d B>A A2:|2 d<B e>d B>A A>G||

